X:1
T:8. Hofmann und kein Hofmann.
T:8. Hŏfmānn und kein Hōfmănn.
T:Ludwig van Beethoven
T:Zweistimmiger Canon.
C:Ludwig van Beethoven
Z:Zweistimmiger Canon.
%%score [ 1 2 ]
L:1/8
M:3/4
K:C
V:1 treble nm="1. Stimme."
V:2 treble nm="2. Stimme."
V:1
!f! c2 G4 | e2 c4 | z6 | A2 A2 A2 |!p! _A4 F2 | z2 E2 F2 | G4 C2 |: z2!f! c d e2 | z c e f g2 | %9
w: Hof- mann,|Hof- mann,||sei ja kein|Hof- mann,|ja kein|Hof- mann.|Nein, nein, nein,|nein, nein, nein, nein,|
 e2 e2 e2 | g2 f4 | f2 c2 c2 | C6- | C4 C2 |!f! c2 G4 | e2 c4 | z6 | A2 A2 A2 |!p! _A4 F2 | %19
w: ich hei- sse|Hof- mann,|und bin kein|Hof-|* mann.|Hof- mann,|Hof- mann,||sei ja kein|Hof- mann,|
 z2 E2 F2 | G4 C2 :| %21
w: ja kein|Hof- mann.|
V:2
 z6 | z6 | z6 | z6 | z6 | z6 | z6 |:!f! c2 G4 | e2 c4 | z6 | A2 A2 A2 |!p! _A4 F2 | z2 E2 F2 | %13
w: |||||||Hof- mann,|Hof- mann,||sei ja kein|Hof- mann,|ja kein|
 G4 C2 | z2 c d e2 | z c e f g2 | e2 e2 e2 | g2 f4 | f2 c2 c2 | C6- | C4 C2 :| %21
w: Hof- mann.|Nein, nein, nein,|nein, nein, nein, nein,|ich hei- sse|Hof- mann,|und bin kein|Hof-|* mann.|

